X:21071 
T:HAWTHORN, The 
B:DMI.0435
Z:Nordberg/Black
R:slip jig
%Q:1/4=150
M:9/8
L:1/8
K:G
dBG GBG AGE|dBG GBd efg|dBG G2B AGE|gbg faf e2g:|
def gfg edB|def gfg a2B/c/|def gfg edB|gbg faf edB|
def gfg edB|def gfg a2g/a/|bag agf gfe|dBG GBd efg|]

%%%

